rospo-light/small/status/computer-fail-symbolic.svg

<?xml version="1.0" encoding="UTF-8" standalone="no"?>
<svg
   xmlns:dc="http://purl.org/dc/elements/1.1/"
   xmlns:cc="http://creativecommons.org/ns#"
   xmlns:rdf="http://www.w3.org/1999/02/22-rdf-syntax-ns#"
   xmlns:svg="http://www.w3.org/2000/svg"
   xmlns="http://www.w3.org/2000/svg"
   xmlns:sodipodi="http://sodipodi.sourceforge.net/DTD/sodipodi-0.dtd"
   xmlns:inkscape="http://www.inkscape.org/namespaces/inkscape"
   width="22"
   height="22"
   version="1.1"
   id="svg6"
   sodipodi:docname="computer-fail-symbolic.svg"
   inkscape:version="0.92.1 r">
  <metadata
     id="metadata12">
    <rdf:RDF>
      <cc:Work
         rdf:about="">
        <dc:format>image/svg+xml</dc:format>
        <dc:type
           rdf:resource="http://purl.org/dc/dcmitype/StillImage" />
      </cc:Work>
    </rdf:RDF>
  </metadata>
  <defs
     id="defs10" />
  <sodipodi:namedview
     pagecolor="#ffffff"
     bordercolor="#666666"
     borderopacity="1"
     objecttolerance="10"
     gridtolerance="10"
     guidetolerance="10"
     inkscape:pageopacity="0"
     inkscape:pageshadow="2"
     inkscape:window-width="769"
     inkscape:window-height="480"
     id="namedview8"
     showgrid="false"
     inkscape:zoom="10.727273"
     inkscape:cx="11"
     inkscape:cy="11"
     inkscape:window-x="0"
     inkscape:window-y="0"
     inkscape:window-maximized="0"
     inkscape:current-layer="svg6" />
  <g
     id="g4491"
     transform="translate(3,3)">
    <path
       id="path2"
       d="M 2,0 C 0,0 0,2 0,2 v 9 c 0,0 0,2 2,2 h 12 c 0,0 2,0 2,-2 V 2 c 0,0 0,-2 -2,-2 z m 0,2 h 12 v 8 H 2 Z m 1,13 v 1 h 10 v -1 c 0,-1 -1,-1 -1,-1 H 4 c 0,0 -1,0 -1,1 z"
       style="fill:#5c616c"
       inkscape:connector-curvature="0" />
    <path
       id="path4"
       d="M 5,3 V 5 H 6 V 3 Z m 5,0 v 2 h 1 V 3 Z M 5,7 v 1 h 6 V 7 Z m 6,1 v 1 h 1 V 8 Z M 5,8 H 4 v 1 h 1 z"
       style="fill:#5c616c"
       inkscape:connector-curvature="0" />
  </g>
</svg>

<svg xmlns="http://www.w3.org/2000/svg" width="16" height="16" version="1.1">
 <path style="fill:#5c616c" d="M 2,0 C 0,0 0,2 0,2 V 11 C 0,11 0,13 2,13 H 14 C 14,13 16,13 16,11 V 2 C 16,2 16,0 14,0 Z M 2,2 H 14 V 10 H 2 Z M 3,15 V 16 H 13 V 15 C 13,14 12,14 12,14 H 4 C 4,14 3,14 3,15 Z"/>
 <path style="fill:#5c616c" d="M 5,3 V 5 H 6 V 3 Z M 10,3 V 5 H 11 V 3 Z M 5,7 V 8 H 11 V 7 Z M 11,8 V 9 H 12 V 8 Z M 5,8 H 4 V 9 H 5 Z"/>
</svg>
